Yaru++/mimetypes/48/text-x-systemd-unit.svg

<svg height="48" viewBox="0 0 12.7 12.7" width="48" xmlns="http://www.w3.org/2000/svg" xmlns:xlink="http://www.w3.org/1999/xlink"><linearGradient id="a" gradientUnits="userSpaceOnUse" x1="6.350384" x2="6.350384" y1=".396869" y2="12.038536"><stop offset="0" stop-color="#fff"/><stop offset=".125" stop-color="#fff" stop-opacity=".098039"/><stop offset=".92500001" stop-color="#fff" stop-opacity=".098039"/><stop offset="1" stop-color="#fff" stop-opacity=".498039"/></linearGradient><linearGradient id="b" gradientTransform="matrix(0 -.02997233 .02997147 0 -3.039658 13.626036)" gradientUnits="userSpaceOnUse" x1="459.03448" x2="35.310345" y1="419.23337" y2="207.36522"><stop offset="0" stop-color="#f2f2f2"/><stop offset="1" stop-color="#f9f9f9"/></linearGradient><path d="m4.1624031.39686933c-.5881423-.0089588-1.0513696.0135414-1.4324701.0775147-.3811032.063972-.692957.1839646-.921393.411861-.2284333.22789677-.3490012.53961007-.4123769.92087407-.0633756.3812644-.0757476.845434-.0728636 1.4350545v3.2401124 3.2416623c-.00286.5887147.00955 1.0526497.072864 1.4335037.063376.381265.1839436.692978.4123769.920875.228436.227896.5402898.34789.921393.411861.3811032.06397.844259.07752 1.4324701.07752h4.3759596c.5882111 0 1.0511261-.01352 1.4314382-.07752.3803117-.064.6912127-.184399.9188047-.412377.227595-.227978.347451-.53947.411345-.920359.06389-.380886.07752-.844114.07752-1.4335037v-3.2416623-3.175l-2.8391083-2.84375407z" opacity=".1"/><path d="m4.1625645.39686933c-2.334731 0-2.585945.2398051-2.5745017 2.57925887v3.2415745 3.2415746c-.011457 2.3394537.2397707 2.5792587 2.5745017 2.5792587h4.375994c2.3347305 0 2.5745015-.239779 2.5745015-2.5792587v-3.2415746l-.000177-3.175-2.6458334-2.64583337z" fill="none" opacity=".2" stroke="#000" stroke-width=".529167"/><path d="m4.1625645.39686933c-2.334731 0-2.585945.2398051-2.5745017 2.57925887v3.2415745 3.2415746c-.011457 2.3394537.2397707 2.5792587 2.5745017 2.5792587h4.375994c2.3347305 0 2.5745015-.239779 2.5745015-2.5792587v-3.2415746l-.000177-3.175-2.6458334-2.64583337z" fill="url(#b)"/><path d="m2.6423453 5.9527426.00397 2.6462087h1.058336v-.529167h-.5291705v-1.5874999h.5291693v-.5291667zm6.3539715.0003704v.5291667h.5291693v1.5874996h-.5291693v.529167h1.0583362v-2.6458333z" fill="#201a26" fill-opacity=".85" stroke-width=".096016"/><path d="m6.5198432 7.2745057 1.9477223-1.0820692v2.1641378z" fill="#2bba66" stroke-width=".108207"/><circle cx="4.896434" cy="7.27358" fill="#2bba66" r=".973862" stroke-width=".108207"/><path d="m1.5878828 6.2177027v3.2416626c-.011456 2.3394527.2397893 2.5791707 2.5745203 2.5791707h4.3759596c2.3347313 0 2.5745203-.239691 2.5745203-2.5791707v-3.2416626z" fill="#fff" opacity=".2"/><path d="m6.3503829.39686933v11.64166667h2.1879798c2.3347313 0 2.5745203-.239691 2.5745203-2.5791707v-3.2416626-3.175l-2.6458334-2.64583337z" fill="#fff" opacity=".1"/><path d="m4.1624031.39686933c-2.334731 0-2.5859635.239717-2.5745203 2.57917077v3.2416626 3.2416626c-.011456 2.3394527.2397893 2.5791707 2.5745203 2.5791707h4.3759596c2.3347313 0 2.5745203-.239691 2.5745203-2.5791707v-3.2416626-3.175h-.264583v3.175 3.2416626c0 .5803497-.01625 1.0241217-.07028 1.3461697-.05403.322051-.139878.509149-.264068.633556-.12419.124394-.310716.21051-.632002.264583-.3212889.05406-.7644342.07028-1.3435886.07028h-4.3759583c-.5791544 0-1.0228501-.01619-1.3451391-.07028-.3222863-.0541-.5103204-.140097-.6351032-.264583-.1247801-.124495-.2105977-.311367-.2640647-.633037-.05347-.32167-.068472-.76555-.06563-1.3456557v-.000529-3.2421666-3.2421793-.0005292c-.002831-.5801064.0121709-1.0239838.06563-1.3456544.0534696-.3216707.1392846-.5085498.2640647-.63303627.1247802-.1244865.3133355-.210484.6356218-.2645833.3222863-.0540745.7654661-.0702675 1.3446205-.0702675h4.3046465v-.2645834z" fill="url(#a)" opacity=".4"/><path d="m11.112883 3.307286v-.2645833l-2.6458334-2.64583337h-.2645834v1.11364557.04267.022918c0 1.506003.2016019 1.7382252 1.7110604 1.7308441z" opacity=".2"/><path d="m11.112883 3.042364-2.6458334-2.64549517v.98132417.04267.022918c0 1.5060031.069406 1.6059637 1.5788644 1.5985826z" fill="#faf8f6"/></svg>

<?xml version="1.0" encoding="UTF-8" standalone="no"?>
<svg
   xmlns:dc="http://purl.org/dc/elements/1.1/"
   xmlns:cc="http://creativecommons.org/ns#"
   xmlns:rdf="http://www.w3.org/1999/02/22-rdf-syntax-ns#"
   xmlns:svg="http://www.w3.org/2000/svg"
   xmlns="http://www.w3.org/2000/svg"
   xmlns:xlink="http://www.w3.org/1999/xlink"
   xmlns:sodipodi="http://sodipodi.sourceforge.net/DTD/sodipodi-0.dtd"
   xmlns:inkscape="http://www.inkscape.org/namespaces/inkscape"
   height="48"
   viewBox="0 0 12.7 12.7"
   width="48"
   version="1.1"
   id="svg40"
   sodipodi:docname="text-x-systemd-unit.svg"
   inkscape:version="0.92.5 (2060ec1f9f, 2020-04-08)">
  <metadata
     id="metadata46">
    <rdf:RDF>
      <cc:Work
         rdf:about="">
        <dc:format>image/svg+xml</dc:format>
        <dc:type
           rdf:resource="http://purl.org/dc/dcmitype/StillImage" />
        <dc:title />
      </cc:Work>
    </rdf:RDF>
  </metadata>
  <defs
     id="defs44">
    <clipPath
       clipPathUnits="userSpaceOnUse"
       id="clipPath994">
      <path
         style="color:#000000;display:inline;overflow:visible;visibility:visible;fill:#cdcdcd;fill-opacity:1;fill-rule:nonzero;stroke:none;stroke-width:2;stroke-miterlimit:4;stroke-dasharray:none;stroke-opacity:1;marker:none;enable-background:accumulate"
         d="m 335.73108,62 c -8.82418,0 -9.77365,0.90635 -9.7304,9.74838 V 84 96.25162 c -0.0433,8.84203 0.90622,9.74838 9.7304,9.74838 h 16.53919 c 8.82418,0 9.7304,-0.90625 9.7304,-9.74838 V 84 71.74838 C 362.00067,62.90625 361.09445,62 352.27027,62 Z"
         id="path996"
         inkscape:connector-curvature="0"
         sodipodi:nodetypes="scccssscsss" />
    </clipPath>
    <linearGradient
       gradientTransform="matrix(0.26458333,0,0,0.26458333,-84.666282,-16.007297)"
       inkscape:collect="always"
       xlink:href="#linearGradient927"
       id="linearGradient1004"
       x1="344"
       y1="62"
       x2="344"
       y2="106"
       gradientUnits="userSpaceOnUse" />
    <linearGradient
       inkscape:collect="always"
       id="linearGradient927">
      <stop
         style="stop-color:#ffffff;stop-opacity:1;"
         offset="0"
         id="stop923" />
      <stop
         id="stop933"
         offset="0.125"
         style="stop-color:#ffffff;stop-opacity:0.09803922" />
      <stop
         id="stop931"
         offset="0.92500001"
         style="stop-color:#ffffff;stop-opacity:0.09803922" />
      <stop
         style="stop-color:#ffffff;stop-opacity:0.49803922"
         offset="1"
         id="stop925" />
    </linearGradient>
    <linearGradient
       inkscape:collect="always"
       xlink:href="#linearGradient4338"
       id="linearGradient1024"
       gradientUnits="userSpaceOnUse"
       gradientTransform="matrix(0,-0.02997233,0.02997147,0,-3.0396584,13.626036)"
       x1="459.03448"
       y1="419.23337"
       x2="35.310345"
       y2="207.36522" />
    <linearGradient
       inkscape:collect="always"
       id="linearGradient4338">
      <stop
         style="stop-color:#f2f2f2;stop-opacity:1"
         offset="0"
         id="stop4340" />
      <stop
         style="stop-color:#f9f9f9;stop-opacity:1"
         offset="1"
         id="stop4342" />
    </linearGradient>
  </defs>
  <sodipodi:namedview
     pagecolor="#ffffff"
     bordercolor="#666666"
     borderopacity="1"
     objecttolerance="10"
     gridtolerance="10"
     guidetolerance="10"
     inkscape:pageopacity="0"
     inkscape:pageshadow="2"
     inkscape:window-width="834"
     inkscape:window-height="480"
     id="namedview42"
     showgrid="false"
     inkscape:zoom="4.9166667"
     inkscape:cx="24"
     inkscape:cy="24"
     inkscape:window-x="0"
     inkscape:window-y="28"
     inkscape:window-maximized="0"
     inkscape:current-layer="svg40" />
  <linearGradient
     id="a"
     gradientUnits="userSpaceOnUse"
     x1="6.35075852"
     x2="6.35075852"
     y1="284.43232313"
     y2="296.60315631">
    <stop
       offset="0"
       stop-color="#fff"
       id="stop2" />
    <stop
       offset=".125"
       stop-color="#fff"
       stop-opacity=".098039"
       id="stop4" />
    <stop
       offset=".92500001"
       stop-color="#fff"
       stop-opacity=".098039"
       id="stop6" />
    <stop
       offset="1"
       stop-opacity=".498039"
       id="stop8" />
  </linearGradient>
  <linearGradient
     id="b"
     gradientTransform="matrix(0 -.02997233 -.02997147 0 15.740061 297.92607)"
     gradientUnits="userSpaceOnUse"
     x1="512"
     x2="-.000001"
     y1="397.99393"
     y2="125.99394">
    <stop
       offset="0"
       stop-color="#76c22b"
       id="stop11" />
    <stop
       offset="1"
       stop-color="#a6d74f"
       id="stop13" />
  </linearGradient>
  <path
     style="color:#000000;font-style:normal;font-variant:normal;font-weight:normal;font-stretch:normal;font-size:medium;line-height:normal;font-family:sans-serif;font-variant-ligatures:normal;font-variant-position:normal;font-variant-caps:normal;font-variant-numeric:normal;font-variant-alternates:normal;font-feature-settings:normal;text-indent:0;text-align:start;text-decoration:none;text-decoration-line:none;text-decoration-style:solid;text-decoration-color:#000000;letter-spacing:normal;word-spacing:normal;text-transform:none;writing-mode:lr-tb;direction:ltr;text-orientation:mixed;dominant-baseline:auto;baseline-shift:baseline;text-anchor:start;white-space:normal;shape-padding:0;clip-rule:nonzero;display:inline;overflow:visible;visibility:visible;opacity:0.1;isolation:auto;mix-blend-mode:normal;color-interpolation:sRGB;color-interpolation-filters:linearRGB;solid-color:#000000;solid-opacity:1;vector-effect:none;fill:#000000;fill-opacity:1;fill-rule:nonzero;stroke:none;stroke-width:0.52916664;stroke-linecap:butt;stroke-linejoin:miter;stroke-miterlimit:4;stroke-dasharray:none;stroke-dashoffset:0;stroke-opacity:1;marker:none;color-rendering:auto;image-rendering:auto;shape-rendering:auto;text-rendering:auto;enable-background:accumulate"
     d="M 4.1624031,0.39686933 C 3.5742608,0.38791053 3.1110335,0.41041073 2.729933,0.47438403 2.3488298,0.53835603 2.036976,0.65834863 1.80854,0.88624503 1.5801067,1.1141418 1.4595388,1.4258551 1.3961631,1.8071191 1.3327875,2.1883835 1.3204155,2.6525531 1.3232995,3.2421736 V 6.482286 9.7239483 c -0.00286,0.5887147 0.00955,1.0526497 0.072864,1.4335037 0.063376,0.381265 0.1839436,0.692978 0.4123769,0.920875 0.228436,0.227896 0.5402898,0.34789 0.921393,0.411861 0.3811032,0.06397 0.844259,0.07752 1.4324701,0.07752 h 4.3759596 c 0.5882111,0 1.0511261,-0.01352 1.4314382,-0.07752 0.3803117,-0.064 0.6912127,-0.184399 0.9188047,-0.412377 0.227595,-0.227978 0.347451,-0.53947 0.411345,-0.920359 0.06389,-0.380886 0.07752,-0.844114 0.07752,-1.4335037 V 6.482286 3.307286 L 8.5383627,0.46353193 Z"
     id="path1020"
     inkscape:connector-curvature="0"
     sodipodi:nodetypes="sccsccccccsscccscccs" />
  <path
     style="color:#000000;display:inline;overflow:visible;visibility:visible;opacity:0.2;fill:none;fill-opacity:1;fill-rule:nonzero;stroke:#000000;stroke-width:0.52916664;stroke-miterlimit:4;stroke-dasharray:none;stroke-opacity:1;marker:none;enable-background:accumulate"
     d="m 4.1625645,0.39686933 c -2.334731,0 -2.585945,0.2398051 -2.5745017,2.57925887 v 3.2415745 3.2415746 c -0.011457,2.3394537 0.2397707,2.5792587 2.5745017,2.5792587 h 4.375994 c 2.3347305,0 2.5745015,-0.239779 2.5745015,-2.5792587 V 6.2177027 l -1.77e-4,-3.175 -2.6458334,-2.64583337 z"
     id="path958"
     inkscape:connector-curvature="0"
     sodipodi:nodetypes="scccssscccs" />
  <path
     style="color:#000000;display:inline;overflow:visible;visibility:visible;fill:url(#linearGradient1024);fill-opacity:1;fill-rule:nonzero;stroke:none;stroke-width:0.26458332;marker:none;enable-background:accumulate"
     d="m 4.1625645,0.39686933 c -2.334731,0 -2.585945,0.2398051 -2.5745017,2.57925887 v 3.2415745 3.2415746 c -0.011457,2.3394537 0.2397707,2.5792587 2.5745017,2.5792587 h 4.375994 c 2.3347305,0 2.5745015,-0.239779 2.5745015,-2.5792587 V 6.2177027 l -1.77e-4,-3.175 -2.6458334,-2.64583337 z"
     id="path964"
     inkscape:connector-curvature="0"
     sodipodi:nodetypes="scccssscccs" />
  <path
     id="path1045"
     style="color:#000000;font-weight:400;line-height:normal;font-family:sans-serif;font-variant-ligatures:normal;font-variant-position:normal;font-variant-caps:normal;font-variant-numeric:normal;font-variant-alternates:normal;font-feature-settings:normal;text-indent:0;text-align:start;text-decoration:none;text-decoration-line:none;text-decoration-style:solid;text-decoration-color:#000000;text-transform:none;text-orientation:mixed;white-space:normal;shape-padding:0;display:inline;overflow:visible;isolation:auto;mix-blend-mode:normal;solid-color:#000000;solid-opacity:1;fill:#201a26;fill-opacity:0.85;stroke-width:0.09601561;enable-background:new"
     d="m 2.6423453,5.9527426 0.00397,2.6462087 h 1.058336 V 8.0697843 H 3.1754808 V 6.4822844 H 3.7046501 V 5.9531177 Z M 8.9963168,5.953113 V 6.4822797 H 9.5254861 V 8.0697793 H 8.9963168 v 0.529167 H 10.054653 V 5.953113 Z"
     font-weight="400"
     overflow="visible"
     inkscape:connector-curvature="0"
     sodipodi:nodetypes="cccccccccccccccccc" />
  <path
     id="path1047"
     d="M 6.5198432,7.2745057 8.4675655,6.1924365 v 2.1641378 z"
     style="display:inline;fill:#2bba66;fill-opacity:1;stroke-width:0.10820689;enable-background:new"
     inkscape:connector-curvature="0" />
  <circle
     id="circle1049"
     r="0.97386211"
     cy="7.2735801"
     cx="4.8964338"
     style="display:inline;fill:#2bba66;fill-opacity:1;stroke-width:0.10820689;enable-background:new" />
  <path
     style="color:#000000;display:inline;overflow:visible;visibility:visible;opacity:0.2;fill:#ffffff;fill-opacity:1;fill-rule:nonzero;stroke:none;stroke-width:0.26458332;marker:none;enable-background:accumulate"
     d="m 1.5878828,6.2177027 v 3.2416626 c -0.011456,2.3394527 0.2397893,2.5791707 2.5745203,2.5791707 h 4.3759596 c 2.3347313,0 2.5745203,-0.239691 2.5745203,-2.5791707 V 6.2177027 Z"
     id="path1006"
     inkscape:connector-curvature="0" />
  <path
     style="color:#000000;display:inline;overflow:visible;visibility:visible;opacity:0.1;fill:#ffffff;fill-opacity:1;fill-rule:nonzero;stroke:none;stroke-width:0.26458332;marker:none;enable-background:accumulate"
     d="M 6.3503829,0.39686933 V 12.038536 h 2.1879798 c 2.3347313,0 2.5745203,-0.239691 2.5745203,-2.5791707 v -3.2416626 -3.175 L 8.4670496,0.39686933 Z"
     id="path1013"
     inkscape:connector-curvature="0"
     sodipodi:nodetypes="ccsscccc" />
  <path
     style="color:#000000;font-style:normal;font-variant:normal;font-weight:normal;font-stretch:normal;font-size:medium;line-height:normal;font-family:sans-serif;font-variant-ligatures:normal;font-variant-position:normal;font-variant-caps:normal;font-variant-numeric:normal;font-variant-alternates:normal;font-feature-settings:normal;text-indent:0;text-align:start;text-decoration:none;text-decoration-line:none;text-decoration-style:solid;text-decoration-color:#000000;letter-spacing:normal;word-spacing:normal;text-transform:none;writing-mode:lr-tb;direction:ltr;text-orientation:mixed;dominant-baseline:auto;baseline-shift:baseline;text-anchor:start;white-space:normal;shape-padding:0;clip-rule:nonzero;display:inline;overflow:visible;visibility:visible;opacity:0.4;isolation:auto;mix-blend-mode:normal;color-interpolation:sRGB;color-interpolation-filters:linearRGB;solid-color:#000000;solid-opacity:1;vector-effect:none;fill:url(#linearGradient1004);fill-opacity:1;fill-rule:nonzero;stroke:none;stroke-width:0.52916664;stroke-linecap:butt;stroke-linejoin:miter;stroke-miterlimit:4;stroke-dasharray:none;stroke-dashoffset:0;stroke-opacity:1;marker:none;color-rendering:auto;image-rendering:auto;shape-rendering:auto;text-rendering:auto;enable-background:accumulate"
     clip-path="none"
     d="m 4.1624031,0.39686933 c -2.334731,0 -2.5859635,0.239717 -2.5745203,2.57917077 v 3.2416626 3.2416626 c -0.011456,2.3394527 0.2397893,2.5791707 2.5745203,2.5791707 h 4.3759596 c 2.3347313,0 2.5745203,-0.239691 2.5745203,-2.5791707 v -3.2416626 -3.175 H 10.8483 v 3.175 3.2416626 c 0,0.5803497 -0.01625,1.0241217 -0.07028,1.3461697 -0.05403,0.322051 -0.139878,0.509149 -0.264068,0.633556 -0.12419,0.124394 -0.310716,0.21051 -0.632002,0.264583 -0.3212889,0.05406 -0.7644342,0.07028 -1.3435886,0.07028 H 4.1624031 c -0.5791544,0 -1.0228501,-0.01619 -1.3451391,-0.07028 -0.3222863,-0.0541 -0.5103204,-0.140097 -0.6351032,-0.264583 -0.1247801,-0.124495 -0.2105977,-0.311367 -0.2640647,-0.633037 -0.05347,-0.32167 -0.068472,-0.76555 -0.06563,-1.3456557 V 9.4598693 6.2177027 2.9755234 2.9749942 C 1.8496351,2.3948878 1.864637,1.9510104 1.9180961,1.6293398 1.9715657,1.3076691 2.0573807,1.12079 2.1821608,0.99630353 2.306941,0.87181703 2.4954963,0.78581953 2.8177826,0.73172023 3.1400689,0.67764573 3.5832487,0.66145273 4.1624031,0.66145273 h 4.3046465 v -0.2645834 z"
     id="path990"
     inkscape:connector-curvature="0" />
  <path
     inkscape:connector-curvature="0"
     style="color:#000000;display:inline;overflow:visible;visibility:visible;opacity:0.2;fill:#000000;fill-opacity:1;fill-rule:nonzero;stroke:none;stroke-width:0.06615189;marker:none;enable-background:accumulate"
     d="M 11.112883,3.307286 V 3.0427027 L 8.4670496,0.39686933 H 8.2024662 v 1.11364557 0.04267 0.022918 c 0,1.506003 0.2016019,1.7382252 1.7110604,1.7308441 z"
     id="rect4158-0-3-62-2"
     sodipodi:nodetypes="ccccccscc" />
  <path
     inkscape:connector-curvature="0"
     style="color:#000000;display:inline;overflow:visible;visibility:visible;fill:#faf8f6;fill-opacity:1;fill-rule:nonzero;stroke:none;stroke-width:0.06615189;marker:none;enable-background:accumulate"
     d="M 11.112883,3.042364 8.4670496,0.39686883 V 1.378193 1.420863 1.443781 c 0,1.5060031 0.069406,1.6059637 1.5788644,1.5985826 z"
     id="rect4158-0-3-62"
     sodipodi:nodetypes="ccccscc" />
</svg>
